img/icons/icon-add-photo.svg

<svg width="38" height="38" viewBox="0 0 38 38" fill="none" xmlns="http://www.w3.org/2000/svg">
<path fill-rule="evenodd" clip-rule="evenodd" d="M37.3334 31.8334C37.3334 34.871 34.871 37.3334 31.8334 37.3334H6.16675C3.12918 37.3334 0.666748 34.871 0.666748 31.8334V6.16675C0.666748 3.12918 3.12918 0.666748 6.16675 0.666748H13.501C14.513 0.666748 15.3334 1.48715 15.3334 2.49916C15.3334 3.51124 14.5131 4.33175 13.501 4.33195L6.16675 4.33341C5.15423 4.33341 4.33341 5.15423 4.33341 6.16675V30.5097L12.0082 19.7678C12.5837 18.9621 13.6825 18.7686 14.4924 19.2915L14.6738 19.425L24.1059 27.2831L26.6413 23.4831C27.2403 22.5847 28.4666 22.4073 29.2926 23.0528L29.4631 23.2037L33.6667 27.4059V24.5001C33.6667 23.4876 34.4876 22.6667 35.5001 22.6667C36.5126 22.6667 37.3334 23.4876 37.3334 24.5001V31.8334ZM13.8429 23.5064L6.58475 33.6668H31.8334C32.6197 33.6668 33.2905 33.1717 33.5509 32.4763L28.4509 27.3784L26.0255 31.017C25.4613 31.8634 24.3284 32.0786 23.4991 31.5363L23.3264 31.4085L13.8429 23.5064ZM28.1667 0.666748C29.1793 0.666748 30.0001 1.48756 30.0001 2.50008V8.00008H35.5001C36.5126 8.00008 37.3334 8.82089 37.3334 9.83342C37.3334 10.8459 36.5126 11.6667 35.5001 11.6667H30.0001V17.1667C30.0001 18.1793 29.1793 19.0001 28.1667 19.0001C27.1542 19.0001 26.3334 18.1793 26.3334 17.1667V11.6667H20.8334C19.8209 11.6667 19.0001 10.8459 19.0001 9.83342C19.0001 8.82089 19.8209 8.00008 20.8334 8.00008H26.3334V2.50008C26.3334 1.48756 27.1542 0.666748 28.1667 0.666748ZM11.6667 8.00008C13.6918 8.00008 15.3334 9.6417 15.3334 11.6667C15.3334 13.6918 13.6918 15.3334 11.6667 15.3334C9.6417 15.3334 8.00008 13.6918 8.00008 11.6667C8.00008 9.6417 9.6417 8.00008 11.6667 8.00008Z" fill="#303E65"/>
</svg>

<svg width="38" height="38" viewBox="0 0 38 38" fill="none" xmlns="http://www.w3.org/2000/svg"><path fill-rule="evenodd" clip-rule="evenodd" d="M37.333 31.833a5.5 5.5 0 01-5.5 5.5H6.167a5.5 5.5 0 01-5.5-5.5V6.167a5.5 5.5 0 015.5-5.5H13.5a1.832 1.832 0 010 3.665l-7.334.001c-1.013 0-1.834.821-1.834 1.834V30.51l7.675-10.742c.576-.806 1.675-1 2.484-.477l.182.134 9.432 7.858 2.535-3.8a1.834 1.834 0 012.652-.43l.17.15 4.204 4.203V24.5a1.833 1.833 0 013.666 0v7.333zm-23.49-8.327l-7.258 10.16h25.248c.787 0 1.458-.494 1.718-1.19l-5.1-5.098-2.425 3.639a1.834 1.834 0 01-2.527.52l-.173-.128-9.483-7.903zM28.167.666C29.179.667 30 1.489 30 2.5V8h5.5a1.833 1.833 0 010 3.667H30v5.5a1.833 1.833 0 11-3.667 0v-5.5h-5.5a1.833 1.833 0 010-3.667h5.5V2.5c0-1.012.821-1.833 1.834-1.833zM11.667 8a3.667 3.667 0 110 7.333 3.667 3.667 0 010-7.333z" fill="#303E65"/></svg>
